exported-svg/shopping-bag.svg

<svg height="24" viewBox="0 0 24 24" width="24" xmlns="http://www.w3.org/2000/svg"><path d="m20.5 6-2.25-3h-11.5l-2.25 3zm.5 1h-17v13.5c0 .8284271.67157288 1.5 1.5 1.5h14c.8284271 0 1.5-.6715729 1.5-1.5zm-14.9-4.8c.09442719-.12590292.24262135-.2.4-.2h12c.1573787 0 .3055728.07409708.4.2l3 4c.0649111.08654809.1.19181489.1.3v14c0 1.3807119-1.1192881 2.5-2.5 2.5h-14c-1.38071187 0-2.5-1.1192881-2.5-2.5v-14c0-.10818511.03508894-.21345191.1-.3zm9.9 8.3c0-.2761424.2238576-.5.5-.5s.5.2238576.5.5c0 2.4852814-2.0147186 4.5-4.5 4.5s-4.5-2.0147186-4.5-4.5c0-.2761424.22385763-.5.5-.5s.5.2238576.5.5c0 1.9329966 1.5670034 3.5 3.5 3.5s3.5-1.5670034 3.5-3.5z"/></svg>

<?xml version="1.0" encoding="UTF-8"?>
<svg width="24px" height="24px" viewBox="0 0 24 24" version="1.1" xmlns="http://www.w3.org/2000/svg" xmlns:xlink="http://www.w3.org/1999/xlink">
    <!-- Generator: Sketch 55.2 (78181) - https://sketchapp.com -->
    <title>shopping-bag</title>
    <desc>Created with Sketch.</desc>
    <g id="shopping-bag" stroke="none" stroke-width="1" fill="none" fill-rule="evenodd">
        <path d="M20.5,6 L18.25,3 L6.75,3 L4.5,6 L20.5,6 Z M21,7 L4,7 L4,20.5 C4,21.3284271 4.67157288,22 5.5,22 L19.5,22 C20.3284271,22 21,21.3284271 21,20.5 L21,7 Z M6.1,2.2 C6.19442719,2.07409708 6.34262135,2 6.5,2 L18.5,2 C18.6573787,2 18.8055728,2.07409708 18.9,2.2 L21.9,6.2 C21.9649111,6.28654809 22,6.39181489 22,6.5 L22,20.5 C22,21.8807119 20.8807119,23 19.5,23 L5.5,23 C4.11928813,23 3,21.8807119 3,20.5 L3,6.5 C3,6.39181489 3.03508894,6.28654809 3.1,6.2 L6.1,2.2 Z M16,10.5 C16,10.2238576 16.2238576,10 16.5,10 C16.7761424,10 17,10.2238576 17,10.5 C17,12.9852814 14.9852814,15 12.5,15 C10.0147186,15 8,12.9852814 8,10.5 C8,10.2238576 8.22385763,10 8.5,10 C8.77614237,10 9,10.2238576 9,10.5 C9,12.4329966 10.5670034,14 12.5,14 C14.4329966,14 16,12.4329966 16,10.5 Z" id="Combined-Shape" fill="#000000" fill-rule="nonzero"></path>
    </g>
</svg>
